sosaa_gui/icons/save-as.svg

<?xml version="1.0" encoding="UTF-8" standalone="no"?>
<!-- Created with Inkscape (http://www.inkscape.org/) -->

<svg
   width="63"
   height="25"
   viewBox="0 0 16.66875 6.6145833"
   version="1.1"
   id="svg47586"
   xml:space="preserve"
   sodipodi:docname="save-as.svg"
   inkscape:version="1.2.2 (b0a8486, 2022-12-01)"
   xmlns:inkscape="http://www.inkscape.org/namespaces/inkscape"
   xmlns:sodipodi="http://sodipodi.sourceforge.net/DTD/sodipodi-0.dtd"
   xmlns:xlink="http://www.w3.org/1999/xlink"
   xmlns="http://www.w3.org/2000/svg"
   xmlns:svg="http://www.w3.org/2000/svg"><sodipodi:namedview
     id="namedview74634"
     pagecolor="#ffffff"
     bordercolor="#000000"
     borderopacity="0.25"
     inkscape:showpageshadow="2"
     inkscape:pageopacity="0.0"
     inkscape:pagecheckerboard="0"
     inkscape:deskcolor="#d1d1d1"
     showgrid="false"
     inkscape:zoom="9.44"
     inkscape:cx="31.620763"
     inkscape:cy="12.5"
     inkscape:window-width="1440"
     inkscape:window-height="900"
     inkscape:window-x="0"
     inkscape:window-y="0"
     inkscape:window-maximized="0"
     inkscape:current-layer="layer1" /><defs
     id="defs47583"><linearGradient
       xlink:href="#linearGradient252075"
       id="linearGradient57401"
       gradientUnits="userSpaceOnUse"
       gradientTransform="matrix(0.10848629,0,0,0.10848629,14.98746,-9.5140399)"
       x1="75.848846"
       y1="132.66083"
       x2="100.97573"
       y2="84.279877" /><linearGradient
       id="linearGradient252075"><stop
         style="stop-color:#3771c8;stop-opacity:1;"
         offset="0"
         id="stop252071" /><stop
         style="stop-color:#3771c8;stop-opacity:0;"
         offset="1"
         id="stop252073" /></linearGradient></defs><g
     id="layer1"><g
       id="g24645-1"
       transform="matrix(1.0381369,0,0,1.0578829,-11.562262,-0.19951051)"><path
         style="color:#000000;font-style:normal;font-variant:normal;font-weight:normal;font-stretch:normal;font-size:medium;line-height:normal;font-family:sans-serif;font-variant-ligatures:normal;font-variant-position:normal;font-variant-caps:normal;font-variant-numeric:normal;font-variant-alternates:normal;font-feature-settings:normal;text-indent:0;text-align:start;text-decoration:none;text-decoration-line:none;text-decoration-style:solid;text-decoration-color:#000000;letter-spacing:normal;word-spacing:normal;text-transform:none;writing-mode:lr-tb;direction:ltr;text-orientation:mixed;dominant-baseline:auto;baseline-shift:baseline;text-anchor:start;white-space:normal;shape-padding:0;clip-rule:nonzero;display:inline;overflow:visible;visibility:visible;isolation:auto;mix-blend-mode:normal;color-interpolation:sRGB;color-interpolation-filters:linearRGB;solid-color:#000000;solid-opacity:1;vector-effect:none;fill:url(#linearGradient57401);fill-opacity:1;fill-rule:nonzero;stroke:none;stroke-width:0.516936;stroke-linecap:butt;stroke-linejoin:miter;stroke-miterlimit:4;stroke-dasharray:none;stroke-dashoffset:0;stroke-opacity:1;color-rendering:auto;image-rendering:auto;shape-rendering:auto;text-rendering:auto;enable-background:accumulate"
         d="m 26.070004,1.0640006 c 0,0 -1.035297,0.027095 -1.909745,0.2241591 -0.437274,0.098476 -0.839941,0.2144363 -1.095635,0.4960298 -0.127846,0.1408141 -0.202421,0.3611471 -0.149359,0.5667951 0.0535,0.205671 0.193872,0.379294 0.405172,0.557267 0.357699,0.301447 0.54372,0.55516 0.603032,0.730161 0.05919,0.175 0.03643,0.271575 -0.08765,0.420164 -0.246929,0.297179 -0.53666,0.49044 -1.608138,0.808532 l -0.513329,0.698774 c 1.095749,-0.325298 2.101243,-0.674173 2.518913,-1.176975 0.208902,-0.25139 0.288481,-0.593742 0.179072,-0.916627 -0.109283,-0.322907 -0.363731,-0.625971 -0.759338,-0.95942 -0.165528,-0.139492 -0.226211,-0.247269 -0.23748,-0.291122 -0.01138,-0.04383 -0.01371,-0.09859 0.03187,-0.147475 0.08879,-0.09779 0.427827,-0.3067977 0.826508,-0.3966434 0.797476,-0.1797022 1.804392,-0.3642554 1.804392,-0.3642554 0.507973,-0.135487 -0.0084,-0.2493981 -0.0084,-0.2493981 z"
         id="path252059-3-3-2" /><text
         xml:space="preserve"
         style="font-style:normal;font-variant:normal;font-weight:normal;font-stretch:normal;font-size:2.53503px;line-height:1;font-family:'Gentium Basic';-inkscape-font-specification:'Gentium Basic, Normal';font-variant-ligatures:normal;font-variant-caps:normal;font-variant-numeric:normal;font-feature-settings:normal;text-align:start;letter-spacing:0px;word-spacing:0px;writing-mode:lr-tb;text-anchor:start;fill:#3771c8;fill-opacity:1;stroke:none;stroke-width:0.0287037"
         x="21.996992"
         y="4.3698936"
         id="text252063-8-9-6"><tspan
           id="tspan252061-0-9-6"
           x="21.996992"
           y="4.3698936"
           style="font-style:normal;font-variant:normal;font-weight:normal;font-stretch:normal;font-size:2.53503px;font-family:'Gentium Basic';-inkscape-font-specification:'Gentium Basic, Normal';font-variant-ligatures:normal;font-variant-caps:normal;font-variant-numeric:normal;font-feature-settings:normal;text-align:start;writing-mode:lr-tb;text-anchor:start;fill:#3771c8;fill-opacity:1;stroke-width:0.0287037">1</tspan></text><text
         xml:space="preserve"
         style="font-style:normal;font-variant:normal;font-weight:normal;font-stretch:normal;font-size:1.57063px;line-height:1;font-family:'Noto Serif';-inkscape-font-specification:'Noto Serif, Normal';font-variant-ligatures:normal;font-variant-caps:normal;font-variant-numeric:normal;font-feature-settings:normal;text-align:start;letter-spacing:0px;word-spacing:0px;writing-mode:lr-tb;text-anchor:start;fill:#87aade;fill-opacity:1;stroke:none;stroke-width:0.0287037"
         x="24.402815"
         y="3.0492473"
         id="text252067-2-7-5"><tspan
           id="tspan252065-4-0-4"
           x="24.402815"
           y="3.0492473"
           style="font-style:normal;font-variant:normal;font-weight:normal;font-stretch:normal;font-size:1.57063px;font-family:'Noto Serif';-inkscape-font-specification:'Noto Serif, Normal';font-variant-ligatures:normal;font-variant-caps:normal;font-variant-numeric:normal;font-feature-settings:normal;text-align:start;writing-mode:lr-tb;text-anchor:start;fill:#87aade;stroke-width:0.0287037">D</tspan></text></g><path
       fill="#4d4d4d"
       d="M 7.9540551,0.61343612 9.5335044,1.5863617 a 0.31589138,0.31589138 0 0 0 0.416917,-0.075217 3.6643404,3.6643404 0 0 1 0.3253436,-0.3790701 l 0.01552,-0.013135 c 0.05969,0.059695 0.189475,0.1894749 0.34743,0.4264683 a 10.759262,10.759262 0 0 1 1.01722,1.9427232 2.1480616,2.1480616 0 0 1 0.08477,0.2905998 2.5144957,2.5144957 0 0 1 -0.356982,0.057307 c -0.315911,0.031045 -0.739156,0.044173 -1.162521,0.031045 A 9.5178084,9.5178084 0 0 1 9.0650099,3.7727641 2.4860654,2.4860654 0 0 1 8.7112513,3.6939656 l 0.015521,-0.06328 A 4.4224799,4.4224799 0 0 1 8.9573183,3.1030942 0.31589138,0.31589138 0 0 0 8.8438958,2.6923856 L 7.2707626,1.7225645 A 0.1642635,0.1642635 0 0 1 7.2134545,1.4856908 L 7.7157368,0.67072065 a 0.1642635,0.1642635 0 0 1 0.2368738,-0.0573073 z"
       color="#000000"
       enable-background="accumulate"
       font-family="sans-serif"
       font-weight="400"
       overflow="visible"
       style="line-height:normal;font-variant-ligatures:normal;font-variant-position:normal;font-variant-caps:normal;font-variant-numeric:normal;font-variant-alternates:normal;font-feature-settings:normal;text-indent:0;text-align:start;text-decoration-line:none;text-decoration-style:solid;text-decoration-color:#000000;text-transform:none;text-orientation:mixed;white-space:normal;shape-padding:0;isolation:auto;mix-blend-mode:normal;solid-color:#000000;solid-opacity:1;stroke-width:3.15891"
       id="path55" /><text
       xml:space="preserve"
       style="font-size:2.47805px;fill:#ddcdff;fill-opacity:1;stroke:#82b366;stroke-width:0;stroke-dasharray:none"
       x="0.89619529"
       y="5.5385046"
       id="text5821"><tspan
         id="tspan5819"
         x="0.89619529"
         y="5.5385046"
         style="font-style:normal;font-variant:normal;font-weight:normal;font-stretch:normal;font-size:2.47805px;font-family:hel;-inkscape-font-specification:hel;fill:#000000;fill-opacity:1;stroke:none;stroke-width:0">Save as</tspan></text><path
       fill="#4d4d4d"
       fill-rule="evenodd"
       d="M 6.3396816,1.3690905 A 0.21901304,0.21901304 0 0 0 6.1206676,1.5914793 V 2.1440702 H 5.5680767 A 0.21901304,0.21901304 0 0 0 5.3490626,2.3630843 v 0.2661839 c 0,0.1213632 0.097676,0.2190141 0.2190141,0.2190141 h 0.5525909 v 0.5525908 c 0,0.1213632 0.1011147,0.2190141 0.219014,0.2190141 h 0.266184 A 0.21901304,0.21901304 0 0 0 6.8248797,3.4008731 V 2.8482823 H 7.3774705 A 0.21901304,0.21901304 0 0 0 7.5998466,2.6292682 V 2.3630728 A 0.21901304,0.21901304 0 0 0 7.3774667,2.1440587 H 6.8282493 V 1.5914679 A 0.21901304,0.21901304 0 0 0 6.6092352,1.3690791 Z"
       id="path99"
       style="stroke-width:3.36943" /></g></svg>

<svg xmlns="http://www.w3.org/2000/svg" width="63" height="25" viewBox="0 0 16.669 6.615" xmlns:v="https://vecta.io/nano"><defs><linearGradient id="A" x1="23.216" y1="4.878" x2="25.942" y2="-.371" gradientUnits="userSpaceOnUse"><stop offset="0" stop-color="#3771c8"/><stop offset="1" stop-color="#3771c8" stop-opacity="0"/></linearGradient></defs><g transform="matrix(1.038137 0 0 1.057883 -11.562262 -.199511)"><path d="M26.07 1.064s-1.035.027-1.91.224c-.437.098-.84.214-1.096.496-.128.141-.202.361-.149.567s.194.379.405.557c.358.301.544.555.603.73s.036.272-.088.42c-.247.297-.537.49-1.608.809l-.513.699c1.096-.325 2.101-.674 2.519-1.177.209-.251.288-.594.179-.917s-.364-.626-.759-.959c-.166-.139-.226-.247-.237-.291s-.014-.099.032-.147c.089-.098.428-.307.827-.397l1.804-.364c.508-.135-.008-.249-.008-.249z" fill="url(#A)"/><text xml:space="preserve" x="21.997" y="4.37" font-size="2.535" font-family="Gentium Basic" letter-spacing="0" word-spacing="0" writing-mode="lr-tb" fill="#3771c8"><tspan x="21.997" y="4.37" font-weight="normal" writing-mode="lr-tb">1</tspan></text><text xml:space="preserve" x="24.403" y="3.049" font-size="1.571" font-family="Noto Serif" letter-spacing="0" word-spacing="0" writing-mode="lr-tb" fill="#87aade"><tspan x="24.403" y="3.049" font-weight="normal" writing-mode="lr-tb">D</tspan></text></g><path fill="#4d4d4d" d="M7.954.613l1.579.973a.316.316 0 0 0 .417-.075 3.664 3.664 0 0 1 .325-.379l.016-.013c.06.06.189.189.347.426a10.759 10.759 0 0 1 1.017 1.943 2.148 2.148 0 0 1 .085.291 2.514 2.514 0 0 1-.357.057c-.316.031-.739.044-1.163.031a9.518 9.518 0 0 1-1.156-.094 2.486 2.486 0 0 1-.354-.079l.016-.063a4.422 4.422 0 0 1 .231-.528.316.316 0 0 0-.113-.411l-1.573-.97a.164.164 0 0 1-.057-.237l.502-.815a.164.164 0 0 1 .237-.057z" font-family="sans-serif"/><text xml:space="preserve" x="0.896" y="5.539" font-size="2.478" fill="#ddcdff" stroke="#82b366"><tspan x="0.896" y="5.539" font-weight="normal" font-family="hel" fill="#000" stroke="none">Save as</tspan></text><path fill="#4d4d4d" fill-rule="evenodd" d="M6.34 1.369a.219.219 0 0 0-.219.222v.553h-.553a.219.219 0 0 0-.219.219v.266c0 .121.098.219.219.219h.553v.553a.22.22 0 0 0 .219.219h.266a.219.219 0 0 0 .219-.219v-.553h.553a.219.219 0 0 0 .222-.219v-.266a.219.219 0 0 0-.222-.219h-.549v-.553a.219.219 0 0 0-.219-.222z"/></svg>
